X: 6
T:I think I'll hit it over there
M:6/8
L:1/8
C:Mits Ota
K:D major
|: Adc dBd | Adc dBd | Add Gdd | Fdd Edd | Adc dBd | Adc dBd | Bed cBc |
1 dAF D2 z :|2 dAF DE^E||
|: FBc dcd | FBc dcd | ced cBc | dcB edc |  FBc dcd | FBc dcd | ced cBc
| dAF DFG :|
|: Adc dBd | Adc dBd | Bed cde | fed gfe | Adc dBd | Adc dBd | Bed cBc |
1 dAF D2 z :|2 dAF DF=c|| 
|:
K:Emin 
 BGD dcd | BGD dcd | BAB cAF | GFG AFD | BGD dcd | BGD dcd | BAB cAF | G
BA GFG :|
K:Dmaj
|: Adc dBd | Adc dBd | Add Gdd | Fdd Edd | Adc dBd | Adc dBd | Bed cBc |
 dAF D2 z :||
